icon-svg/vac_filter.svg

<svg xmlns="http://www.w3.org/2000/svg" fill="#44739e" viewBox="0 0 24 24"><path d="M12.78 8.647h.458v2.192h-.458Zm6.764.109a.363.363 0 0 0-.253-.109h-.205v2.192h.458zm-1.86-.109h.458v2.192h-.458ZM22 14.3l-.331-6.26a.85.85 0 0 0-.753-.88H3.107a.849.849 0 0 0-.753.876L2 14.292a.88.88 0 0 0 .755 1.008h18.491a.878.878 0 0 0 .754-1m-1.589-.521a.7.7 0 0 1-.609.761H4.305a.7.7 0 0 1-.609-.761V8.526a.7.7 0 0 1 .609-.76H19.8a.7.7 0 0 1 .609.76zm-3.427-5.132h.458v2.192h-.458zm1.401 0h.458v2.192h-.458zm-2.803 0h.458v2.192h-.458zm.701 0h.458v2.192h-.458zm-2.102 0h.458v2.192h-.458zm-.701 0h.458v2.192h-.458Zm1.402 0h.458v2.192h-.458Zm-2.803 2.596h.458v2.411h-.458zm-.7 0h.458v2.411h-.458zm-.701 0h.458v2.411h-.458zm2.102 0h.458v2.411h-.458Zm-2.803 0h.458v2.411h-.458Zm-1.401 0h.458v2.411h-.458zm.701 0h.458v2.411h-.458zm4.203 0h.458v2.411h-.458Zm5.606 2.411h.205a.363.363 0 0 0 .253-.109v-2.3h-.458zm-1.402-2.411h.458v2.411h-.458zm.701 0h.458v2.411h-.458zm-10.51 0h.458v2.411h-.458Zm8.408 0h.458v2.411h-.458zm-1.401 0h.458v2.411h-.458zm-.701 0h.458v2.411h-.458zm2.803 0h.458v2.411h-.458zm-1.402 0h.458v2.411h-.458ZM4.83 8.647h-.017a.471.471 0 0 0-.411.514v1.678h.428Zm3.746 0h.458v2.192h-.458zm-.701 0h.458v2.192h-.458Zm-.7 0h.458v2.192h-.458zm-.701 0h.458v2.192h-.458Zm4.905 0h.458v2.192h-.458Zm-4.204 2.596h.458v2.411h-.458zm2.802-2.596h.458v2.192h-.458Zm.701 0h.458v2.192h-.458zm-1.401 0h.458v2.192h-.458zm-3.504 2.596h.458v2.411h-.458zm-.7 0h.458v2.411h-.458Zm1.401 0h.458v2.411h-.458ZM4.4 13.14a.471.471 0 0 0 .411.514h.019v-2.411H4.4Zm1.373-4.493h.458v2.192h-.458zm-.7 0h.458v2.192h-.458Zm7.006 0h.458v2.192h-.458z"/></svg>

<?xml version="1.0" encoding="UTF-8"?>
<svg width="24px" fill="#44739e" height="24px" viewBox="0 0 24 24" version="1.1" xmlns="http://www.w3.org/2000/svg" xmlns:xlink="http://www.w3.org/1999/xlink">
            <path d="m 12.78,8.6470003 h 0.458 V 10.839 H 12.78 Z M 19.544,8.756 A 0.363,0.363 0 0 0 19.291,8.647 h -0.205 v 2.192 h 0.458 z m -1.86,-0.1089997 h 0.458 V 10.839 H 17.684 Z M 22,14.3 21.669,8.04 A 0.85,0.85 0 0 0 20.916,7.16 H 3.107 A 0.849,0.849 0 0 0 2.354,8.036 L 2,14.292 A 0.88,0.88 0 0 0 2.755,15.3 H 21.246 A 0.878,0.878 0 0 0 22,14.3 Z M 20.411,13.779 A 0.7,0.7 0 0 1 19.802,14.54 H 4.305 A 0.7,0.7 0 0 1 3.696,13.779 V 8.526 A 0.7,0.7 0 0 1 4.305,7.766 H 19.8 a 0.7,0.7 0 0 1 0.609,0.76 z M 16.983999,8.6470003 h 0.458 V 10.839 h -0.458 z m 1.401001,0 h 0.458 V 10.839 h -0.458 z m -2.803,0 H 16.04 V 10.839 h -0.458 z m 0.701001,0 h 0.458 V 10.839 h -0.458 z m -2.102001,0 h 0.458 V 10.839 h -0.458 z m -0.701,0 h 0.458 V 10.839 H 13.48 Z m 1.402,0 H 15.34 V 10.839 H 14.882 Z M 12.079,11.243 h 0.458 v 2.411 h -0.458 z m -0.7,0 h 0.458 v 2.411 h -0.458 z m -0.701,0 h 0.458 v 2.411 h -0.458 z m 2.102,0 h 0.458 v 2.411 H 12.78 Z m -2.8029998,0 H 10.435 v 2.411 H 9.9770002 Z m -1.401,0 h 0.458 v 2.411 h -0.458 z m 0.7010002,0 h 0.458 v 2.411 h -0.458 z m 4.2029996,0 h 0.458 v 2.411 H 13.48 Z m 5.606,2.411 h 0.205 a 0.363,0.363 0 0 0 0.253,-0.109 v -2.3 h -0.458 z m -1.402,-2.411 h 0.458 v 2.411 h -0.458 z m 0.701,0 h 0.458 v 2.411 h -0.458 z m -10.51,0 h 0.458 v 2.411 H 7.875 Z m 8.408001,0 h 0.458 v 2.411 h -0.458 z m -1.401001,0 h 0.458 v 2.411 h -0.458 z m -0.701,0 h 0.458 v 2.411 h -0.458 z m 2.802999,0 h 0.458 v 2.411 h -0.458 z m -1.401999,0 h 0.458 v 2.411 H 15.582 Z M 4.83,8.647 H 4.813 A 0.471,0.471 0 0 0 4.402,9.161 v 1.678 H 4.83 Z m 3.7460002,3e-7 h 0.458 V 10.839 h -0.458 z m -0.7010002,0 H 8.333 V 10.839 H 7.875 Z m -0.6999998,0 h 0.458 V 10.839 h -0.458 z m -0.7010002,0 H 6.932 V 10.839 H 6.474 Z m 4.905,0 h 0.458 V 10.839 H 11.379 Z M 7.1750002,11.243 h 0.458 v 2.411 h -0.458 z m 2.802,-2.5959997 H 10.435 V 10.839 H 9.9770002 Z m 0.7009998,0 h 0.458 V 10.839 h -0.458 z m -1.4009996,0 h 0.458 V 10.839 h -0.458 z M 5.7729998,11.243 h 0.458 v 2.411 h -0.458 z m -0.6999998,0 h 0.458 v 2.411 H 5.073 Z m 1.401,0 h 0.458 v 2.411 H 6.474 Z M 4.4,13.14 a 0.471,0.471 0 0 0 0.411,0.514 H 4.83 V 11.243 H 4.4 Z M 5.7729998,8.6470003 h 0.458 V 10.839 h -0.458 z m -0.6999998,0 H 5.531 V 10.839 H 5.073 Z m 7.006,0 h 0.458 V 10.839 h -0.458 z"/>

</svg>
